Newaita-dark/actions/32/mail-mark-notjunk.svg

<svg height="32" viewBox="0 0 32 32" width="32" xmlns="http://www.w3.org/2000/svg"><g fill="#e0e0e0"><path d="m27.214844 16.816406c-.199219.007813-.386719.109375-.511719.269532l-4.542969 5.917968-3.195312-2.949218c-.277344-.257813-.710938-.242188-.96875.039062l-.929688 1.007812c-.257812.277344-.242187.710938.039063.96875l4.851562 4.480469c.296875.273438.761719.230469 1.007813-.089843l5.914062-7.707032c.230469-.300781.175782-.730468-.125-.960937l-1.089844-.835938c-.125-.097656-.285156-.148437-.449218-.140625zm0 0"/><path d="m5.292969 5.542969c-1.46875 0-2.648438 1.179687-2.648438 2.644531v15.878906c0 1.464844 1.179688 2.644532 2.648438 2.644532h9.261719v-2.644532h-7.941407c-.730469 0-1.320312-.589844-1.320312-1.324218v-13.230469c0-.734375.589843-1.324219 1.320312-1.324219h18.523438c.734375 0 1.324219.589844 1.324219 1.324219v4.628906h2.644531v-5.953125c0-1.464844-1.179688-2.644531-2.644531-2.644531zm0 0"/><path d="m4.84375 5.882812-1.75 1.964844 11.90625 10.585938c.5.445312 1.25.445312 1.75 0l11.90625-10.585938-1.75-1.964844-11.03125 9.804688zm0 0"/></g></svg>

<svg xmlns="http://www.w3.org/2000/svg" xmlns:xlink="http://www.w3.org/1999/xlink" width="32px" height="32px" viewBox="0 0 32 32" version="1.1">
<g id="surface1">
     <defs>
  <style id="current-color-scheme" type="text/css">
   .ColorScheme-Text { color:#eeeeee; } .ColorScheme-Highlight { color:#424242; }
  </style>
 </defs>
<path style="fill:currentColor" class="ColorScheme-Text" d="M 27.214844 16.816406 C 27.015625 16.824219 26.828125 16.925781 26.703125 17.085938 L 22.160156 23.003906 L 18.964844 20.054688 C 18.6875 19.796875 18.253906 19.8125 17.996094 20.09375 L 17.066406 21.101562 C 16.808594 21.378906 16.824219 21.8125 17.105469 22.070312 L 21.957031 26.550781 C 22.253906 26.824219 22.71875 26.78125 22.964844 26.460938 L 28.878906 18.753906 C 29.109375 18.453125 29.054688 18.023438 28.753906 17.792969 L 27.664062 16.957031 C 27.539062 16.859375 27.378906 16.808594 27.214844 16.816406 Z M 27.214844 16.816406 "/>
     <defs>
  <style id="current-color-scheme" type="text/css">
   .ColorScheme-Text { color:#eeeeee; } .ColorScheme-Highlight { color:#424242; }
  </style>
 </defs>
<path style="fill:currentColor" class="ColorScheme-Text" d="M 5.292969 5.542969 C 3.824219 5.542969 2.644531 6.722656 2.644531 8.1875 L 2.644531 24.066406 C 2.644531 25.53125 3.824219 26.710938 5.292969 26.710938 L 14.554688 26.710938 L 14.554688 24.066406 L 6.613281 24.066406 C 5.882812 24.066406 5.292969 23.476562 5.292969 22.742188 L 5.292969 9.511719 C 5.292969 8.777344 5.882812 8.1875 6.613281 8.1875 L 25.136719 8.1875 C 25.871094 8.1875 26.460938 8.777344 26.460938 9.511719 L 26.460938 14.140625 L 29.105469 14.140625 L 29.105469 8.1875 C 29.105469 6.722656 27.925781 5.542969 26.460938 5.542969 Z M 5.292969 5.542969 "/>
     <defs>
  <style id="current-color-scheme" type="text/css">
   .ColorScheme-Text { color:#eeeeee; } .ColorScheme-Highlight { color:#424242; }
  </style>
 </defs>
<path style="fill:currentColor" class="ColorScheme-Text" d="M 4.84375 5.882812 L 3.09375 7.847656 L 15 18.433594 C 15.5 18.878906 16.25 18.878906 16.75 18.433594 L 28.65625 7.847656 L 26.90625 5.882812 L 15.875 15.6875 Z M 4.84375 5.882812 "/>
</g>
</svg>
